lib/brands/icons/pinterest.svg

<svg xmlns="http://www.w3.org/2000/svg" fill="none" aria-hidden="true" viewBox="0 0 48 48"><g id="pinterest-Icon"><path id="Path" fill="#BD081C" d="M44 24C44 35.0484 35.0484 44 24 44C21.9355 44 19.9516 43.6855 18.0806 43.1048C18.8952 41.7742 20.1129 39.5968 20.5645 37.8629C20.8065 36.9274 21.8065 33.1048 21.8065 33.1048C22.4597 34.3468 24.3629 35.4032 26.3871 35.4032C32.4194 35.4032 36.7661 29.8548 36.7661 22.9597C36.7661 16.3548 31.371 11.4113 24.4355 11.4113C15.8065 11.4113 11.2177 17.2016 11.2177 23.5161C11.2177 26.4516 12.7823 30.1048 15.2742 31.2661C15.6532 31.4435 15.8548 31.3629 15.9435 31C16.0081 30.7258 16.3468 29.3629 16.5 28.7339C16.5484 28.5323 16.5242 28.3548 16.3629 28.1613C15.5484 27.1532 14.8871 25.3145 14.8871 23.5968C14.8871 19.1855 18.2258 14.9194 23.9194 14.9194C28.8306 14.9194 32.2742 18.2661 32.2742 23.0565C32.2742 28.4677 29.5403 32.2177 25.9839 32.2177C24.0242 32.2177 22.5484 30.5968 23.0242 28.6048C23.5887 26.2258 24.6774 23.6613 24.6774 21.9435C24.6774 20.4113 23.8548 19.129 22.1452 19.129C20.1371 19.129 18.5242 21.2016 18.5242 23.9839C18.5242 25.7581 19.121 26.9516 19.121 26.9516C19.121 26.9516 17.1452 35.3226 16.7823 36.8871C16.379 38.6129 16.5403 41.0484 16.7097 42.629C9.27419 39.7177 4 32.4758 4 24C4 12.9516 12.9516 4 24 4C35.0484 4 44 12.9516 44 24Z"/></g></svg>

<svg xmlns="http://www.w3.org/2000/svg" fill="none" aria-hidden="true" viewBox="0 0 48 48"><path fill="#BD081C" d="M44 24c0 11.048-8.952 20-20 20-2.064 0-4.048-.315-5.92-.895.815-1.33 2.033-3.508 2.485-5.242.241-.936 1.241-4.758 1.241-4.758.654 1.242 2.557 2.298 4.581 2.298 6.032 0 10.38-5.548 10.38-12.443 0-6.605-5.396-11.549-12.332-11.549-8.628 0-13.217 5.79-13.217 12.105 0 2.936 1.564 6.589 4.056 7.75.38.178.58.097.67-.266.064-.274.403-1.637.556-2.266a.599.599 0 0 0-.137-.573c-.815-1.008-1.476-2.847-1.476-4.564 0-4.412 3.339-8.678 9.032-8.678 4.912 0 8.355 3.347 8.355 8.137 0 5.412-2.734 9.162-6.29 9.162-1.96 0-3.436-1.621-2.96-3.613.565-2.38 1.653-4.944 1.653-6.662 0-1.532-.822-2.814-2.532-2.814-2.008 0-3.62 2.073-3.62 4.855 0 1.774.596 2.968.596 2.968s-1.976 8.37-2.339 9.935c-.403 1.726-.242 4.161-.072 5.742C9.274 39.718 4 32.476 4 24 4 12.952 12.952 4 24 4s20 8.952 20 20Z"/></svg>
